X: 217
T: Old Dog Tray
C: Stephen C. Foster
%R: _
B: "The Everyday Song Book", 1927
F: http://www.library.pitt.edu/happybirthday/pdf/The_Everyday_Song_Book.pdf
Z: 2016 John Chambers <jc:trillian.mit.edu>
M: 4/4
L: 1/8
K: G
% - - - - - - - - - - - - - - - - - - - - - - - - - - - - -
D | D G F G A3 A | B A F D B3 B | B2 ^A B d2 c =A |
w: 1.~The morn of life is past And eve-ning comes at last, It brings me a dream of a
w: 2.~The forms I called my own, Have van-ished one by one, The loved ones, the dear ones have
w: 3.~When thot's re-call the past, His eyes are on me cast, I know that he feels what my
(GF) G B A2 zD | D G F G A3 A | B2 A F D B3 B |
w: once* hap-py day, Of mer-ry forms I've seen Up-on the vil-lage green, A-
w: all* passed a-way, Their hap-py smiles have flown, Their gen-tle voic-es gone, I've
w: break-ing heart would say, Al-tho he can-not speak, I'll vain-ly, vain-ly seek A
B c E A G2 F2 | G6 z2 | d2 A2 A2 AB | G4 D4 |
w: sport-ing with my old dog Tray. Old dog Tray's ev-er faith-ful,
w: noth-ing left but old dog Tray.*******
w: bet-ter friend than old dog Tray.*******
d2 A A A2 G A | B6 zD | D G F G A2 z A |
w: Grief can-not drive him a-way, He's gen-tle, he is kind, I'll
B A F D B3 B | B c E A G2 F2 | G6 z2 |]
w: nev-er, nev-er find A bet-ter friend than old dog Tray.
% - - - - - - - - - - - - - - - - - - - - - - - - - - - - -
% %text _
